actions/22/view-certificate-server-configure.svg

<svg xmlns="http://www.w3.org/2000/svg" viewBox="0 0 22 22">
  <defs id="defs3051">
<style type="text/css" id="current-color-scheme">.ColorScheme-Text {color:#fcfcfc;}</style>
  </defs>
 <path 
    style="fill:currentColor;fill-opacity:1;stroke:none" 
    d="m 3,8 v 5 H 4 V 8 c 0,0 0,-2 2,-2 2,0 8,0 10,0 2,0 2,2 2,2 v 3 h 1 V 8 C 19,8 19,5 16,5 13,5 9,5 6,5 3,5 3,8 3,8 Z M 7.5,7 C 6.669,7 6,7.669 6,8.5 V 10 c 0,0 -1,0 -1,1 0,1 0,0 0,1 0,1 1,1 1,1 l 3,0 c 0,0 1,0 1,-1 0,-1 0,0 0,-1 0,-1 -1,-1 -1,-1 V 8.5 C 9,7.669 8.331,7 7.5,7 Z m 0,1 C 7.777,8 8,8.223 8,8.5 V 10 H 7 V 8.5 C 7,8.223 7.223,8 7.5,8 Z M 11,8 v 1 h 6 V 8 Z m 0,2 v 1 h 5 v -1 z m 0,2 v 1 h 4 v -1 z m -8,3 v 3 c 0,0 0,1 1,1 1,0 2,0 3,0 1,0 1,-1 1,-1 v -3 c 0,0 0,-1 -1,-1 -1,0 -2,0 -3,0 -1,0 -1,1 -1,1 z m 11,-1 v 1 h 5 v -1 z m -9,1 h 2 v 1 H 5 Z m 4,1 v 1 h 4 v -1 z m 5,0 v 1 h 5 V 16 Z M 4,17 h 3 v 1 H 4 Z m 10,1 v 1 h 5 v -1 z"
	class="ColorScheme-Text"
    />  
</svg>

<svg xmlns="http://www.w3.org/2000/svg" viewBox="0 0 22 22">
  <defs id="defs3051">
    <style type="text/css" id="current-color-scheme">
      .ColorScheme-Text {
        color:#eff0f1;
      }
      </style>
  </defs>
 <path 
    style="fill:currentColor;fill-opacity:1;stroke:none" 
    d="M 3 5 L 3 13 L 4 13 L 4 6 L 18 6 L 18 11 L 19 11 L 19 5 L 3 5 z M 7.5 7 C 6.669 7 6 7.669 6 8.5 L 6 10 L 5 10 L 5 13 L 10 13 L 10 10 L 9 10 L 9 8.5 C 9 7.669 8.331 7 7.5 7 z M 7.5 8 C 7.777 8 8 8.223 8 8.5 L 8 10 L 7 10 L 7 8.5 C 7 8.223 7.223 8 7.5 8 z M 11 8 L 11 9 L 17 9 L 17 8 L 11 8 z M 11 10 L 11 11 L 16 11 L 16 10 L 11 10 z M 11 12 L 11 13 L 15 13 L 15 12 L 11 12 z M 3 14 L 3 19 L 8 19 L 8 14 L 3 14 z M 14 14 L 14 15 L 19 15 L 19 14 L 14 14 z M 5 15 L 7 15 L 7 16 L 5 16 L 5 15 z M 9 16 L 9 17 L 13 17 L 13 16 L 9 16 z M 14 16 L 14 17 L 19 17 L 19 16 L 14 16 z M 4 17 L 7 17 L 7 18 L 4 18 L 4 17 z M 14 18 L 14 19 L 19 19 L 19 18 L 14 18 z "
	class="ColorScheme-Text"
    />  
</svg>
